svg/700/rounded/move_selection_up-fill.svg

<svg xmlns="http://www.w3.org/2000/svg" width="48" height="48" viewBox="0 -960 960 960"><path d="M314-384q-38.75 0-66.375-27.1T220-478v-333q0-40.213 27.625-67.606Q275.25-906 314-906h333q40.213 0 67.606 27.394Q742-851.213 742-811v333q0 39.8-27.394 66.9Q687.213-384 647-384H314Zm-47.175 165Q247-219 233.5-232.675 220-246.351 220-266.088q0-19.737 13.675-33.824Q247.351-314 267.175-314 287-314 300.5-299.737q13.5 14.263 13.5 34Q314-246 300.325-232.5q-13.676 13.5-33.5 13.5Zm0 164Q247-55 233.5-68.675q-13.5-13.676-13.5-33.5Q220-122 233.675-135.5q13.676-13.5 33.5-13.5Q287-149 300.5-135.325q13.5 13.676 13.5 33.5Q314-82 300.325-68.5 286.649-55 266.825-55Zm214 0Q461-55 447.5-68.675q-13.5-13.676-13.5-33.5Q434-122 447.675-135.5q13.676-13.5 33.5-13.5Q501-149 514.5-135.325q13.5 13.676 13.5 33.5Q528-82 514.325-68.5 500.649-55 480.825-55Zm213.5 0Q674-55 660.5-68.675q-13.5-13.676-13.5-33.5Q647-122 660.675-135.5q13.676-13.5 34-13.5Q715-149 728.5-135.325q13.5 13.676 13.5 33.5Q742-82 728.325-68.5q-13.676 13.5-34 13.5Zm0-164Q674-219 660.5-232.675 647-246.351 647-266.088q0-19.737 13.675-33.824 13.676-14.088 34-14.088Q715-314 728.5-299.737q13.5 14.263 13.5 34Q742-246 728.325-232.5q-13.676 13.5-34 13.5Z"/></svg>

<svg xmlns="http://www.w3.org/2000/svg" width="48" height="48" viewBox="0 -960 960 960"><path d="M314-384q-38.75 0-66.37-27.1Q220-438.2 220-478v-333q0-40.21 27.63-67.61Q275.25-906 314-906h333q40.21 0 67.61 27.39Q742-851.21 742-811v333q0 39.8-27.39 66.9Q687.21-384 647-384H314Zm-47.18 165q-19.82 0-33.32-13.68-13.5-13.67-13.5-33.41 0-19.73 13.68-33.82Q247.35-314 267.18-314q19.82 0 33.32 14.26 13.5 14.27 13.5 34 0 19.74-13.68 33.24-13.67 13.5-33.5 13.5Zm0 164Q247-55 233.5-68.68 220-82.35 220-102.18q0-19.82 13.68-33.32 13.67-13.5 33.5-13.5 19.82 0 33.32 13.68 13.5 13.67 13.5 33.5Q314-82 300.32-68.5 286.65-55 266.82-55Zm214 0Q461-55 447.5-68.68 434-82.35 434-102.18q0-19.82 13.68-33.32 13.67-13.5 33.5-13.5 19.82 0 33.32 13.68 13.5 13.67 13.5 33.5Q528-82 514.32-68.5 500.65-55 480.82-55Zm213.5 0Q674-55 660.5-68.68 647-82.35 647-102.18q0-19.82 13.68-33.32 13.67-13.5 34-13.5 20.32 0 33.82 13.68 13.5 13.67 13.5 33.5Q742-82 728.32-68.5q-13.67 13.5-34 13.5Zm0-164q-20.32 0-33.82-13.68-13.5-13.67-13.5-33.41 0-19.73 13.68-33.82 13.67-14.09 34-14.09 20.32 0 33.82 14.26 13.5 14.27 13.5 34 0 19.74-13.68 33.24-13.67 13.5-34 13.5Z"/></svg>
